icons/arrow-right-contained-1.svg

<svg fill="none" viewBox="0 0 24 24"><path fill="currentColor" d="M11.6 6.9a1 1 0 1 0-1.6 1.3zm2.7 4.9.8.6a1 1 0 0 0 0-1.3zm-4.3 3.6a1 1 0 0 0 1.6 1.3zm0-7.2 3.6 4.2 1.5-1.3-3.5-4.2zm3.6 3-3.6 4.2 1.6 1.3 3.5-4.3zm-1.6-7.8a8.6 8.6 0 0 1 8.6 8.6h2c0-5.9-4.7-10.6-10.6-10.6zm8.6 8.6a8.6 8.6 0 0 1-8.6 8.6v2c5.9 0 10.6-4.7 10.6-10.6zm-8.6 8.6a8.6 8.6 0 0 1-8.6-8.6h-2c0 5.9 4.7 10.6 10.6 10.6zm-8.6-8.6a8.6 8.6 0 0 1 8.6-8.6v-2c-5.9 0-10.6 4.7-10.6 10.6z"/></svg>

<svg fill="none" viewBox="0 0 24 24"><path fill="currentColor" d="M11.6 6.9A1 1 0 1 0 10 8.2zm2.7 4.9.8.6a1 1 0 0 0 0-1.3zM10 15.4a1 1 0 0 0 1.6 1.3zm0-7.2 3.6 4.2 1.5-1.3L11.6 7zm3.6 3L10 15.3l1.6 1.3 3.5-4.3zM12 3.3a8.6 8.6 0 0 1 8.6 8.6h2C22.6 6 17.9 1.3 12 1.3zm8.6 8.6a8.6 8.6 0 0 1-8.6 8.6v2c5.9 0 10.6-4.7 10.6-10.6zM12 20.6A8.6 8.6 0 0 1 3.4 12h-2c0 5.9 4.7 10.6 10.6 10.6zM3.4 12A8.6 8.6 0 0 1 12 3.4v-2C6.1 1.4 1.4 6.1 1.4 12z"/></svg>
